static/logos/nike-glyph-white.svg

<svg width="170" height="64" viewBox="0 0 170 64" fill="none" xmlns="http://www.w3.org/2000/svg">
<g clip-path="url(#clip0_1204_228)">
<mask id="mask0_1204_228" style="mask-type:luminance" maskUnits="userSpaceOnUse" x="0" y="0" width="170" height="64">
<path d="M0.5 63.9999H169.227V0H0.5V63.9999Z" fill="white"/>
</mask>
<g mask="url(#mask0_1204_228)">
<path fill-rule="evenodd" clip-rule="evenodd" d="M27.7134 1.93945C17.9156 13.1356 4.34179 25.6718 1.08555 41.3149C-4.04995 65.9704 25.9427 65.3052 40.4998 59.2872C83.3506 41.5767 125.726 22.753 168.341 4.48393C126.907 15.5191 85.6197 27.1321 44.0392 37.5932C14.2909 45.0793 20.0799 18.5251 27.7134 1.93945Z" fill="white"/>
<path d="M27.8105 0.0157981C27.8048 0.0101628 27.798 0.00576888 27.7905 0.00289245C27.783 1.60178e-05 27.775 -0.0012808 27.767 -0.000916547C27.7589 -0.000552293 27.7511 0.00146516 27.7439 0.0050091C27.7367 0.00855303 27.7303 0.0135469 27.7251 0.0196769L27.1084 0.717858L26.6371 1.24537C26.0553 1.90089 25.4696 2.55381 24.8801 3.20416C23.1055 5.16294 21.3174 7.10621 19.5506 9.07081C15.3945 13.6904 11.3354 18.44 7.94723 23.6609C5.30966 27.7239 3.08518 32.0894 1.74118 36.7576C1.51234 37.5566 1.30999 38.3627 1.13415 39.176C0.242035 43.3263 0.0927019 47.8451 1.99718 51.7491C2.77793 53.3524 3.87578 54.7808 5.22433 55.9478C6.46138 57.0122 7.84631 57.8915 9.33584 58.5583C11.6088 59.5958 14.0583 60.2145 16.5252 60.5694C20.1693 61.0911 23.8871 61.0581 27.539 60.6567C31.159 60.2737 34.727 59.4999 38.1804 58.3488C39.6175 57.8639 41.0119 57.2705 42.4141 56.6887C44.0328 56.0202 45.649 55.3486 47.2626 54.6737C52.8364 52.3516 58.4024 50.0139 63.9607 47.6608C84.9178 38.7862 105.799 29.7234 126.677 20.6645C137.2 16.0972 147.719 11.5203 158.254 6.98791L165.911 3.70064L167.738 2.90937L168.238 2.69604C168.257 2.68828 168.374 2.64367 168.374 2.63204C168.379 2.60876 168.354 2.61264 168.339 2.60876C168.339 2.60295 168.329 2.60101 168.335 2.59519L168.327 2.59907C168.29 2.60101 168.25 2.61458 168.226 2.61846L167.904 2.70573L166.285 3.13628L162.078 4.26306C157.98 5.36205 153.883 6.46363 149.787 7.56779C137.495 10.8841 125.214 14.2335 112.926 17.5595C91.3178 23.4087 69.6955 29.2288 47.9898 34.7173C46.6904 35.0483 45.3917 35.3761 44.0936 35.7006C42.992 35.976 41.8827 36.2242 40.7656 36.4259C39.8955 36.585 39.0202 36.7142 38.1397 36.8138C37.4609 36.8901 36.7802 36.9431 36.0975 36.9728C38.1789 36.8702 40.2479 36.5913 42.2822 36.1389C43.2151 35.9391 44.1421 35.7045 45.0691 35.4717L47.9937 34.7348C53.4056 33.3618 58.8132 31.9726 64.2167 30.567C82.703 25.7787 101.133 20.7925 119.563 15.7986C130.393 12.8623 141.226 9.92415 152.063 7.00342C155.675 6.03243 159.286 5.06274 162.899 4.09434L166.622 3.09943L167.755 2.79688L168.073 2.71349L168.054 2.72125L167.553 2.93458L165.889 3.65216L159.233 6.50888C150.415 10.2984 141.608 14.1229 132.799 17.9396C110.865 27.4465 88.9478 36.9922 66.9299 46.3071C60.4821 49.0381 54.0265 51.7507 47.5632 54.4448C45.8371 55.1637 44.1085 55.8819 42.3772 56.5995C41.1399 57.1115 39.9084 57.639 38.6439 58.0831C36.1267 58.9563 33.5418 59.6205 30.9154 60.069C29.1971 60.3658 27.4691 60.5888 25.7295 60.7187C24.3794 60.8158 23.0259 60.8585 21.6723 60.8467C19.8591 60.8326 18.0491 60.6913 16.2556 60.4239C11.7019 59.7296 6.9659 58.0463 3.89391 54.4487C2.68526 53.0362 1.79377 51.3809 1.27961 49.5944C0.799569 47.916 0.57403 46.1751 0.610519 44.4298C0.649307 41.5944 1.23306 38.7784 2.06506 36.0768C3.39355 31.7675 5.46675 27.7181 7.90263 23.9362C11.6321 18.1394 16.1935 12.9341 20.8151 7.84318C22.3588 6.14427 23.9162 4.45312 25.4522 2.74646C25.906 2.24416 25.7295 2.4381 27.6883 0.236889L27.6922 0.23301L27.8144 0.0972525L27.826 0.0778586C27.8286 0.0706621 27.8298 0.063017 27.8295 0.0553622C27.8291 0.0477074 27.8273 0.0401938 27.8241 0.0332526L27.8105 0.0157981ZM36.0975 36.9767C34.1988 37.0601 32.2168 36.9554 30.3511 36.488C31.8289 36.8603 33.3571 37.0116 34.8757 37.0155C35.283 37.0155 35.6902 36.9942 36.0975 36.9767ZM27.5913 0.450222L27.3547 0.973857C27.2448 1.22081 27.1375 1.46776 27.0328 1.7147C27.089 1.58283 27.2481 1.22016 27.5913 0.450222ZM27.0328 1.7147L26.8253 2.18016L26.771 2.32367L27.0328 1.7147ZM25.3533 5.87664L25.2679 6.08609C25.1335 6.46104 25.0003 6.83728 24.8684 7.21482C25.0249 6.76876 25.1865 6.3227 25.3533 5.87664ZM24.8684 7.21482C24.7637 7.51154 24.6512 7.80633 24.5504 8.10694L24.4825 8.31445C24.6079 7.94726 24.7372 7.58072 24.8704 7.21482M23.7378 10.6708L23.5205 11.4369C23.5904 11.1809 23.6628 10.9255 23.7378 10.6708ZM23.5205 11.4369C23.4042 11.8403 23.2839 12.2437 23.1773 12.649L23.0861 13.0252C23.2232 12.4938 23.368 11.9644 23.5205 11.4369ZM23.0861 13.0252C23.0279 13.258 22.971 13.4913 22.9155 13.7254L23.0861 13.0252ZM22.5121 15.5018L22.4616 15.7326C22.4461 15.8063 22.4332 15.88 22.4228 15.9537C22.45 15.8024 22.4797 15.6518 22.5121 15.5018ZM21.8042 20.0264C21.7751 20.3115 21.7344 20.5947 21.713 20.8798C21.7001 21.0724 21.6891 21.2651 21.6801 21.4577C21.7072 20.9787 21.7576 20.5035 21.8042 20.0264ZM21.7925 26.0211C21.8275 26.3198 21.8585 26.6165 21.9089 26.9132C21.9257 26.9947 21.9451 27.0774 21.9671 27.1615C21.8976 26.7831 21.8394 26.4029 21.7925 26.0211ZM22.289 28.5384C22.3336 28.7071 22.3724 28.8739 22.4248 29.0388C22.377 28.8733 22.3317 28.7065 22.289 28.5384ZM23.315 31.1799L23.3887 31.3195C23.3628 31.273 23.3382 31.2277 23.315 31.1799ZM23.9705 32.2717C24.3454 32.8212 24.7747 33.3307 25.2582 33.8C25.6073 34.1355 25.9894 34.4322 26.385 34.7134C25.442 34.0495 24.6231 33.2226 23.9705 32.2717ZM26.4199 34.7387C26.5712 34.8434 26.7186 34.9578 26.8757 35.0567C27.0444 35.1614 27.2287 35.239 27.4013 35.334C27.0627 35.1551 26.735 34.9563 26.4199 34.7387ZM29.168 36.1234C29.3445 36.1854 29.5171 36.2669 29.6994 36.3212C29.8973 36.3794 30.099 36.424 30.3007 36.4763C29.9182 36.3753 29.5403 36.2575 29.168 36.1234Z" fill="white"/>
</g>
</g>
<defs>
<clipPath id="clip0_1204_228">
<rect width="168.727" height="64" fill="white" transform="translate(0.5)"/>
</clipPath>
</defs>
</svg>

<svg xmlns="http://www.w3.org/2000/svg" width="170" height="64" fill="none"><g clip-path="url(#a)"><mask id="b" width="170" height="64" x="0" y="0" maskUnits="userSpaceOnUse" style="mask-type:luminance"><path fill="#fff" d="M.5 64h168.727V0H.5z"/></mask><g fill="#fff" mask="url(#b)"><path fill-rule="evenodd" d="M27.713 1.94C17.916 13.135 4.342 25.671 1.086 41.314-4.05 65.97 25.943 65.305 40.5 59.287c42.85-17.71 85.226-36.534 127.841-54.803-41.434 11.035-82.721 22.648-124.302 33.11-29.748 7.485-23.96-19.069-16.326-35.655" clip-rule="evenodd"/><path d="M27.81.016a.06.06 0 0 0-.085.004l-.617.698-.47.527q-.874.984-1.758 1.96c-1.774 1.958-3.563 3.901-5.33 5.866-4.155 4.62-8.215 9.369-11.603 14.59-2.637 4.063-4.862 8.428-6.206 13.097a38 38 0 0 0-.607 2.418c-.892 4.15-1.041 8.67.863 12.573a13.2 13.2 0 0 0 3.227 4.199 16.9 16.9 0 0 0 4.112 2.61c2.273 1.038 4.722 1.657 7.19 2.011 3.643.522 7.361.49 11.013.088a50.4 50.4 0 0 0 10.641-2.308c1.438-.485 2.832-1.078 4.234-1.66q2.428-1.003 4.849-2.015 8.36-3.483 16.698-7.013c20.957-8.875 41.838-17.938 62.716-26.996 10.523-4.568 21.042-9.145 31.577-13.677l7.657-3.287 1.827-.792.5-.213c.019-.008.136-.052.136-.064.005-.023-.02-.02-.035-.023 0-.006-.01-.008-.004-.014l-.008.004c-.037.002-.077.016-.101.02l-.322.087-1.619.43-4.207 1.127q-6.147 1.648-12.291 3.305c-12.292 3.316-24.573 6.666-36.861 9.992-21.608 5.849-43.23 11.669-64.936 17.157q-1.95.497-3.896.984c-1.102.275-2.211.523-3.328.725q-1.306.238-2.626.388-1.02.115-2.043.159a37 37 0 0 0 6.185-.834c.933-.2 1.86-.434 2.787-.667l2.925-.737q8.118-2.06 16.223-4.168c18.486-4.788 36.916-9.774 55.346-14.768 10.83-2.937 21.663-5.875 32.5-8.796l10.836-2.909 3.723-.995 1.133-.302.318-.084-.019.008-.501.214-1.664.717-6.656 2.857c-8.818 3.79-17.625 7.614-26.434 11.43-21.934 9.508-43.851 19.053-65.87 28.368A3675 3675 0 0 1 42.378 56.6c-1.237.513-2.469 1.04-3.733 1.484a48.5 48.5 0 0 1-7.729 1.986c-1.718.297-3.446.52-5.185.65a50 50 0 0 1-4.058.128 39 39 0 0 1-5.416-.423c-4.554-.694-9.29-2.378-12.362-5.975a13 13 0 0 1-2.614-4.855 17.5 17.5 0 0 1-.67-5.164c.04-2.836.623-5.652 1.455-8.353 1.329-4.31 3.402-8.359 5.838-12.14 3.73-5.798 8.29-11.003 12.912-16.094 1.544-1.699 3.101-3.39 4.637-5.097.454-.502.277-.308 2.236-2.51l.004-.003.122-.136.012-.02a.06.06 0 0 0-.002-.044zm8.287 36.96c-1.898.084-3.88-.02-5.746-.488 1.478.372 3.006.524 4.525.528.407 0 .814-.022 1.221-.04M27.591.45l-.236.524q-.166.37-.322.74c.056-.131.215-.494.558-1.264m-.558 1.265-.208.465-.054.144zm-1.68 4.162-.085.21q-.201.561-.4 1.128.236-.669.485-1.338m-.485 1.338c-.104.297-.217.591-.318.892l-.067.207q.188-.55.387-1.1m-1.132 3.457-.218.766q.105-.384.218-.766m-.218.766c-.116.403-.236.807-.343 1.212l-.09.376q.204-.796.433-1.588m-.434 1.588q-.087.35-.17.7zm-.574 2.477-.05.23a3 3 0 0 0-.04.222q.042-.227.09-.452m-.708 4.524c-.029.285-.07.569-.091.854q-.02.288-.033.578c.027-.48.078-.954.124-1.432m-.011 5.995c.035.299.066.595.116.892q.025.122.058.248-.105-.567-.174-1.14m.496 2.517c.045.17.083.336.136.5a16 16 0 0 1-.136-.5m1.026 2.642.074.14a3 3 0 0 1-.074-.14m.656 1.092q.562.825 1.287 1.528c.35.336.731.632 1.127.913a9.7 9.7 0 0 1-2.415-2.441m2.449 2.467c.151.104.299.219.456.318.168.104.353.182.525.277a10 10 0 0 1-.981-.595m2.748 1.384c.177.062.35.144.531.198.198.058.4.103.602.155q-.574-.15-1.133-.353"/></g></g><defs><clipPath id="a"><path fill="#fff" d="M.5 0h168.727v64H.5z"/></clipPath></defs></svg>
